image/Web-Studio.svg

<svg width="152" height="20" viewBox="0 0 152 20" fill="none" xmlns="http://www.w3.org/2000/svg">
<path d="M8.294 1.18453H11.596L13.676 7.29453L15.756 1.18453H19.084L15.938 9.58253L18.278 15.4845L23.504 1.13253H27.404L19.89 19.5925H16.874L13.676 11.8445L10.478 19.5925H7.462L0 1.13253H3.848L9.1 15.4845L11.388 9.58253L8.294 1.18453ZM34.3793 19.8525C33.2873 19.8525 32.2993 19.6705 31.4153 19.3065C30.5313 18.9252 29.7773 18.4139 29.1533 17.7725C28.5293 17.1312 28.044 16.3859 27.6973 15.5365C27.368 14.6872 27.2033 13.7945 27.2033 12.8585C27.2033 11.8879 27.368 10.9779 27.6973 10.1285C28.0266 9.26186 28.5033 8.50786 29.1273 7.86653C29.7513 7.20786 30.5053 6.68786 31.3893 6.30653C32.2906 5.92519 33.296 5.73453 34.4053 5.73453C35.5146 5.73453 36.5026 5.92519 37.3693 6.30653C38.2533 6.68786 38.9986 7.1992 39.6053 7.84053C40.2293 8.48186 40.6973 9.2272 41.0093 10.0765C41.3386 10.9259 41.5033 11.8099 41.5033 12.7285C41.5033 12.9539 41.4946 13.1705 41.4773 13.3785C41.4773 13.5865 41.46 13.7599 41.4253 13.8985H30.8953C30.9473 14.4359 31.0773 14.9125 31.2853 15.3285C31.4933 15.7445 31.762 16.0999 32.0913 16.3945C32.4206 16.6892 32.7933 16.9145 33.2093 17.0705C33.6253 17.2265 34.0586 17.3045 34.5093 17.3045C35.2026 17.3045 35.8526 17.1399 36.4593 16.8105C37.0833 16.4639 37.508 16.0132 37.7333 15.4585L40.7233 16.2905C40.2206 17.3305 39.4146 18.1885 38.3053 18.8645C37.2133 19.5232 35.9046 19.8525 34.3793 19.8525ZM37.9153 11.6365C37.8286 10.6139 37.4473 9.7992 36.7713 9.19253C36.1126 8.56853 35.3066 8.25653 34.3533 8.25653C33.8853 8.25653 33.4433 8.3432 33.0273 8.51653C32.6286 8.67253 32.2733 8.89786 31.9613 9.19253C31.6493 9.4872 31.3893 9.84253 31.1813 10.2585C30.9906 10.6745 30.878 11.1339 30.8433 11.6365H37.9153ZM52.1538 19.8525C51.1138 19.8525 50.1864 19.6185 49.3718 19.1505C48.5571 18.6825 47.9158 18.0412 47.4478 17.2265V19.5925H44.4058V0.612529H47.8898V8.36053C48.3751 7.52853 49.0078 6.8872 49.7878 6.43653C50.5851 5.96853 51.5124 5.73453 52.5698 5.73453C53.4538 5.73453 54.2598 5.92519 54.9878 6.30653C55.7158 6.68786 56.3398 7.1992 56.8598 7.84053C57.3971 8.48186 57.8044 9.23586 58.0818 10.1025C58.3764 10.9692 58.5238 11.8792 58.5238 12.8325C58.5238 13.8205 58.3591 14.7392 58.0298 15.5885C57.7178 16.4379 57.2758 17.1832 56.7038 17.8245C56.1318 18.4485 55.4558 18.9425 54.6758 19.3065C53.8958 19.6705 53.0551 19.8525 52.1538 19.8525ZM51.1918 16.8885C51.7464 16.8885 52.2578 16.7845 52.7258 16.5765C53.1938 16.3512 53.5924 16.0565 53.9218 15.6925C54.2511 15.3285 54.5024 14.9039 54.6758 14.4185C54.8664 13.9332 54.9618 13.4132 54.9618 12.8585C54.9618 12.3039 54.8751 11.7752 54.7018 11.2725C54.5284 10.7699 54.2771 10.3279 53.9478 9.94653C53.6358 9.5652 53.2631 9.26186 52.8298 9.03653C52.3964 8.8112 51.9198 8.69853 51.3998 8.69853C50.6198 8.69853 49.9178 8.95853 49.2938 9.47853C48.6871 9.9812 48.2191 10.6052 47.8898 11.3505V14.6005C48.0111 14.9472 48.1844 15.2592 48.4098 15.5365C48.6524 15.8139 48.9211 16.0565 49.2158 16.2645C49.5104 16.4552 49.8311 16.6112 50.1778 16.7325C50.5244 16.8365 50.8624 16.8885 51.1918 16.8885ZM80.0264 5.96853C79.905 5.8472 79.6797 5.68253 79.3504 5.47453C79.0384 5.26653 78.6484 5.0672 78.1804 4.87653C77.7297 4.66853 77.2357 4.4952 76.6984 4.35653C76.161 4.21786 75.615 4.14853 75.0604 4.14853C74.0724 4.14853 73.3357 4.33053 72.8504 4.69453C72.365 5.05853 72.1224 5.56986 72.1224 6.22853C72.1224 6.60986 72.209 6.93053 72.3824 7.19053C72.573 7.4332 72.8417 7.64986 73.1884 7.84053C73.535 8.0312 73.9684 8.20453 74.4884 8.36053C75.0257 8.51653 75.641 8.6812 76.3344 8.85453C77.2357 9.0972 78.0504 9.3572 78.7784 9.63453C79.5237 9.91186 80.1477 10.2585 80.6504 10.6745C81.1704 11.0905 81.569 11.5932 81.8464 12.1825C82.1237 12.7545 82.2624 13.4652 82.2624 14.3145C82.2624 15.3025 82.0717 16.1519 81.6904 16.8625C81.3264 17.5559 80.8237 18.1192 80.1824 18.5525C79.5584 18.9859 78.8304 19.3065 77.9984 19.5145C77.1837 19.7052 76.3257 19.8005 75.4244 19.8005C74.0377 19.8005 72.6684 19.5925 71.3164 19.1765C69.9644 18.7605 68.751 18.1712 67.6764 17.4085L69.2624 14.3145C69.4184 14.4705 69.6957 14.6785 70.0944 14.9385C70.5104 15.1812 70.9957 15.4325 71.5504 15.6925C72.105 15.9352 72.7204 16.1432 73.3964 16.3165C74.0724 16.4899 74.7657 16.5765 75.4764 16.5765C77.4524 16.5765 78.4404 15.9439 78.4404 14.6785C78.4404 14.2799 78.3277 13.9419 78.1024 13.6645C77.877 13.3872 77.5564 13.1445 77.1404 12.9365C76.7244 12.7285 76.2217 12.5379 75.6324 12.3645C75.043 12.1912 74.3844 12.0005 73.6564 11.7925C72.7724 11.5499 72.001 11.2899 71.3424 11.0125C70.701 10.7179 70.1637 10.3799 69.7304 9.99853C69.297 9.59986 68.9677 9.1492 68.7424 8.64653C68.5344 8.12653 68.4304 7.5112 68.4304 6.80053C68.4304 5.86453 68.6037 5.03253 68.9504 4.30453C69.297 3.57653 69.7737 2.96986 70.3804 2.48453C71.0044 1.99919 71.7237 1.63519 72.5384 1.39253C73.353 1.13253 74.2284 1.00253 75.1644 1.00253C76.4644 1.00253 77.6604 1.21053 78.7524 1.62653C79.8444 2.02519 80.7977 2.50186 81.6124 3.05653L80.0264 5.96853ZM93.4273 18.8905C92.9593 19.0985 92.3873 19.3065 91.7113 19.5145C91.0353 19.7225 90.3247 19.8265 89.5793 19.8265C89.094 19.8265 88.6347 19.7659 88.2013 19.6445C87.7853 19.5232 87.4127 19.3325 87.0833 19.0725C86.7713 18.7952 86.52 18.4485 86.3293 18.0325C86.1387 17.5992 86.0433 17.0792 86.0433 16.4725V8.64653H84.2493V5.96853H86.0433V1.54853H89.5273V5.96853H92.3873V8.64653H89.5273V15.3025C89.5273 15.7879 89.6487 16.1345 89.8913 16.3425C90.1513 16.5332 90.4633 16.6285 90.8273 16.6285C91.1913 16.6285 91.5467 16.5679 91.8933 16.4465C92.24 16.3252 92.5173 16.2212 92.7253 16.1345L93.4273 18.8905ZM100.182 19.8525C98.7779 19.8525 97.7119 19.4019 96.9839 18.5005C96.2559 17.5992 95.8919 16.2645 95.8919 14.4965V5.96853H99.3759V13.7425C99.3759 15.8399 100.13 16.8885 101.638 16.8885C102.314 16.8885 102.964 16.6892 103.588 16.2905C104.229 15.8745 104.749 15.2505 105.148 14.4185V5.96853H108.632V15.5885C108.632 15.9525 108.693 16.2125 108.814 16.3685C108.953 16.5245 109.169 16.6112 109.464 16.6285V19.5925C109.117 19.6619 108.823 19.7052 108.58 19.7225C108.355 19.7399 108.147 19.7485 107.956 19.7485C107.332 19.7485 106.821 19.6099 106.422 19.3325C106.041 19.0379 105.815 18.6392 105.746 18.1365L105.668 17.0445C105.061 17.9805 104.281 18.6825 103.328 19.1505C102.375 19.6185 101.326 19.8525 100.182 19.8525ZM118.516 19.8525C117.58 19.8525 116.713 19.6705 115.916 19.3065C115.119 18.9425 114.434 18.4399 113.862 17.7985C113.29 17.1572 112.839 16.4119 112.51 15.5625C112.198 14.6959 112.042 13.7685 112.042 12.7805C112.042 11.7925 112.189 10.8739 112.484 10.0245C112.796 9.1752 113.221 8.42986 113.758 7.78853C114.295 7.1472 114.937 6.64453 115.682 6.28053C116.427 5.91653 117.242 5.73453 118.126 5.73453C119.131 5.73453 120.033 5.9772 120.83 6.46253C121.645 6.94786 122.277 7.58053 122.728 8.36053V0.612529H126.212V15.5885C126.212 15.9525 126.273 16.2125 126.394 16.3685C126.515 16.5245 126.723 16.6112 127.018 16.6285V19.5925C126.411 19.7139 125.917 19.7745 125.536 19.7745C124.912 19.7745 124.401 19.6185 124.002 19.3065C123.603 18.9945 123.378 18.5872 123.326 18.0845L123.248 17.2265C122.745 18.0932 122.061 18.7519 121.194 19.2025C120.345 19.6359 119.452 19.8525 118.516 19.8525ZM119.426 16.8885C119.755 16.8885 120.093 16.8365 120.44 16.7325C120.787 16.6112 121.107 16.4465 121.402 16.2385C121.697 16.0305 121.957 15.7879 122.182 15.5105C122.425 15.2332 122.607 14.9299 122.728 14.6005V11.3505C122.589 10.9692 122.39 10.6225 122.13 10.3105C121.887 9.9812 121.601 9.70386 121.272 9.47853C120.96 9.23586 120.622 9.0452 120.258 8.90653C119.911 8.76786 119.565 8.69853 119.218 8.69853C118.698 8.69853 118.213 8.8112 117.762 9.03653C117.329 9.26186 116.956 9.57386 116.644 9.97253C116.332 10.3539 116.089 10.7959 115.916 11.2985C115.743 11.8012 115.656 12.3212 115.656 12.8585C115.656 13.4305 115.751 13.9592 115.942 14.4445C116.133 14.9299 116.393 15.3545 116.722 15.7185C117.051 16.0825 117.441 16.3685 117.892 16.5765C118.36 16.7845 118.871 16.8885 119.426 16.8885ZM130.412 19.5925V5.96853H133.896V19.5925H130.412ZM130.412 4.07053V0.612529H133.896V4.07053H130.412ZM144.111 19.8525C143.002 19.8525 142.005 19.6619 141.121 19.2805C140.237 18.8992 139.483 18.3879 138.859 17.7465C138.252 17.0879 137.784 16.3339 137.455 15.4845C137.126 14.6352 136.961 13.7425 136.961 12.8065C136.961 11.8532 137.126 10.9519 137.455 10.1025C137.784 9.2532 138.252 8.50786 138.859 7.86653C139.483 7.20786 140.237 6.68786 141.121 6.30653C142.005 5.92519 143.002 5.73453 144.111 5.73453C145.22 5.73453 146.208 5.92519 147.075 6.30653C147.959 6.68786 148.704 7.20786 149.311 7.86653C149.935 8.50786 150.412 9.2532 150.741 10.1025C151.07 10.9519 151.235 11.8532 151.235 12.8065C151.235 13.7425 151.07 14.6352 150.741 15.4845C150.412 16.3339 149.944 17.0879 149.337 17.7465C148.73 18.3879 147.985 18.8992 147.101 19.2805C146.217 19.6619 145.22 19.8525 144.111 19.8525ZM140.549 12.8065C140.549 13.4132 140.636 13.9679 140.809 14.4705C141 14.9559 141.251 15.3805 141.563 15.7445C141.892 16.1085 142.274 16.3945 142.707 16.6025C143.14 16.7932 143.608 16.8885 144.111 16.8885C144.614 16.8885 145.082 16.7932 145.515 16.6025C145.948 16.3945 146.321 16.1085 146.633 15.7445C146.962 15.3805 147.214 14.9472 147.387 14.4445C147.578 13.9419 147.673 13.3872 147.673 12.7805C147.673 12.1912 147.578 11.6452 147.387 11.1425C147.214 10.6399 146.962 10.2065 146.633 9.84253C146.321 9.47853 145.948 9.2012 145.515 9.01053C145.082 8.80253 144.614 8.69853 144.111 8.69853C143.608 8.69853 143.14 8.80253 142.707 9.01053C142.274 9.21853 141.892 9.50453 141.563 9.86853C141.251 10.2325 141 10.6659 140.809 11.1685C140.636 11.6712 140.549 12.2172 140.549 12.8065Z" fill="black"/>
</svg>

<svg width="152" height="20" fill="none" xmlns="http://www.w3.org/2000/svg"><path d="M8.294 1.185h3.302l2.08 6.11 2.08-6.11h3.328l-3.146 8.398 2.34 5.902 5.226-14.352h3.9l-7.514 18.46h-3.016l-3.198-7.748-3.198 7.748H7.462L0 1.133h3.848L9.1 15.485l2.288-5.902-3.094-8.398zm26.085 18.668c-1.092 0-2.08-.183-2.964-.547a6.959 6.959 0 01-2.262-1.534 6.925 6.925 0 01-1.456-2.235 7.343 7.343 0 01-.494-2.679c0-.97.165-1.88.494-2.73a6.53 6.53 0 011.43-2.261 6.764 6.764 0 012.262-1.56c.902-.382 1.907-.572 3.016-.572 1.11 0 2.098.19 2.964.572.884.38 1.63.892 2.236 1.534a6.27 6.27 0 011.404 2.235c.33.85.494 1.734.494 2.652 0 .226-.008.443-.026.65 0 .208-.017.382-.052.52h-10.53c.052.538.182 1.014.39 1.43a3.51 3.51 0 001.924 1.742c.416.157.85.235 1.3.235.694 0 1.344-.165 1.95-.494.624-.347 1.049-.798 1.274-1.352l2.99.832c-.502 1.04-1.308 1.898-2.418 2.573-1.092.66-2.4.988-3.926.988zm3.536-8.217c-.086-1.022-.468-1.837-1.144-2.443-.658-.624-1.464-.936-2.418-.936-.468 0-.91.086-1.326.26a3.278 3.278 0 00-1.066.676c-.312.294-.572.65-.78 1.066-.19.415-.303.875-.338 1.377h7.072zm14.239 8.216c-1.04 0-1.968-.233-2.782-.701a5.125 5.125 0 01-1.924-1.924v2.366h-3.042V.613h3.484V8.36c.485-.832 1.118-1.474 1.898-1.924.797-.468 1.724-.702 2.782-.702.884 0 1.69.19 2.418.572A5.927 5.927 0 0156.86 7.84a6.622 6.622 0 011.222 2.261c.294.867.442 1.777.442 2.73 0 .988-.165 1.907-.494 2.756a6.891 6.891 0 01-1.326 2.237 6.384 6.384 0 01-2.028 1.482 5.89 5.89 0 01-2.522.546zm-.962-2.963c.554 0 1.066-.104 1.534-.313.468-.225.866-.52 1.196-.883.33-.364.58-.79.754-1.274.19-.486.286-1.006.286-1.56 0-.555-.087-1.084-.26-1.586a4.004 4.004 0 00-.754-1.326 3.543 3.543 0 00-1.118-.91 3.053 3.053 0 00-1.43-.338c-.78 0-1.482.26-2.106.78a5.035 5.035 0 00-1.404 1.872v3.25c.121.346.294.658.52.935.242.278.511.52.806.729.294.19.615.346.962.468a3.52 3.52 0 001.014.155zm28.834-10.92c-.121-.122-.346-.286-.676-.494a6.638 6.638 0 00-1.17-.598 8.75 8.75 0 00-1.482-.52 6.53 6.53 0 00-1.638-.208c-.988 0-1.724.182-2.21.546-.485.364-.728.875-.728 1.534 0 .38.087.702.26.962.191.242.46.459.806.65.347.19.78.364 1.3.52.538.156 1.153.32 1.846.494a25.56 25.56 0 012.444.78c.746.277 1.37.623 1.872 1.04.52.415.919.918 1.196 1.507.278.572.416 1.283.416 2.133 0 .988-.19 1.837-.572 2.548a4.57 4.57 0 01-1.508 1.69c-.624.433-1.352.753-2.184.962-.814.19-1.672.285-2.574.285-1.386 0-2.756-.207-4.108-.623a12.682 12.682 0 01-3.64-1.768l1.586-3.094c.156.155.434.364.832.623.416.243.902.494 1.456.755.555.242 1.17.45 1.846.624.676.173 1.37.26 2.08.26 1.976 0 2.964-.633 2.964-1.899 0-.398-.112-.736-.338-1.014-.225-.277-.546-.52-.962-.727a9.216 9.216 0 00-1.508-.572c-.589-.174-1.248-.364-1.976-.572a18.881 18.881 0 01-2.314-.78c-.641-.295-1.178-.633-1.612-1.014a4.117 4.117 0 01-.988-1.352c-.208-.52-.312-1.136-.312-1.846 0-.936.174-1.768.52-2.496a5.104 5.104 0 011.43-1.82 6.497 6.497 0 012.158-1.092 8.59 8.59 0 012.626-.39c1.3 0 2.496.208 3.588.624 1.092.398 2.046.875 2.86 1.43l-1.586 2.912zM93.427 18.89c-.468.209-1.04.416-1.716.625a7.209 7.209 0 01-2.132.311c-.485 0-.944-.06-1.378-.181a3.257 3.257 0 01-1.118-.572 3.094 3.094 0 01-.754-1.04c-.19-.434-.286-.954-.286-1.56V8.646H84.25V5.969h1.794v-4.42h3.484v4.42h2.86v2.678h-2.86v6.655c0 .486.122.832.364 1.04.26.191.572.287.936.287.364 0 .72-.061 1.066-.183.347-.12.624-.225.832-.312l.702 2.756zm6.755.962c-1.404 0-2.47-.45-3.198-1.352-.728-.9-1.092-2.235-1.092-4.004V5.97h3.484v7.773c0 2.098.754 3.146 2.262 3.146.676 0 1.326-.199 1.95-.598.641-.415 1.161-1.04 1.56-1.871v-8.45h3.484v9.62c0 .364.061.623.182.78.139.155.355.242.65.26v2.963a7.252 7.252 0 01-1.508.157c-.624 0-1.135-.14-1.534-.416a1.752 1.752 0 01-.676-1.196l-.078-1.093c-.607.936-1.387 1.639-2.34 2.107-.953.468-2.002.701-3.146.701zm18.334 0a6.185 6.185 0 01-2.6-.546 6.133 6.133 0 01-2.054-1.508 7.268 7.268 0 01-1.352-2.235 8.151 8.151 0 01-.468-2.783c0-.987.147-1.906.442-2.755a7.45 7.45 0 011.274-2.236 5.812 5.812 0 011.924-1.508 5.493 5.493 0 012.444-.546c1.005 0 1.907.242 2.704.728a5.243 5.243 0 011.898 1.898V.613h3.484v14.976c0 .364.061.623.182.78.121.155.329.242.624.26v2.963c-.607.122-1.101.183-1.482.183-.624 0-1.135-.156-1.534-.468a1.716 1.716 0 01-.676-1.223l-.078-.857a5.007 5.007 0 01-2.054 1.976 5.814 5.814 0 01-2.678.65zm.91-2.963c.329 0 .667-.052 1.014-.156a3.883 3.883 0 001.742-1.223 2.88 2.88 0 00.546-.91v-3.25a3.467 3.467 0 00-.598-1.04 3.565 3.565 0 00-.858-.831 3.912 3.912 0 00-1.014-.572 2.782 2.782 0 00-1.04-.208c-.52 0-1.005.112-1.456.338a3.404 3.404 0 00-1.118.936 4.265 4.265 0 00-.728 1.325 4.761 4.761 0 00-.26 1.56c0 .572.095 1.101.286 1.586.191.486.451.91.78 1.274s.719.65 1.17.858c.468.209.979.313 1.534.313zm10.986 2.704V5.969h3.484v13.623h-3.484zm0-15.522V.613h3.484V4.07h-3.484zm13.699 15.781c-1.109 0-2.106-.19-2.99-.572a6.959 6.959 0 01-2.262-1.534 7.077 7.077 0 01-1.404-2.261 7.35 7.35 0 01-.494-2.678c0-.954.165-1.855.494-2.705a6.78 6.78 0 011.404-2.235 6.764 6.764 0 012.262-1.56c.884-.382 1.881-.572 2.99-.572 1.109 0 2.097.19 2.964.572a6.49 6.49 0 012.236 1.56 6.58 6.58 0 011.43 2.235c.329.85.494 1.751.494 2.704a7.35 7.35 0 01-.494 2.679 7.077 7.077 0 01-1.404 2.262c-.607.64-1.352 1.152-2.236 1.534-.884.38-1.881.572-2.99.572zm-3.562-7.046c0 .607.087 1.162.26 1.665.191.485.442.91.754 1.274.329.364.711.65 1.144.857.433.191.901.287 1.404.287.503 0 .971-.096 1.404-.287a3.39 3.39 0 001.118-.857c.329-.364.581-.798.754-1.3a4.65 4.65 0 00.286-1.665c0-.589-.095-1.135-.286-1.637a3.718 3.718 0 00-.754-1.3 3.104 3.104 0 00-1.118-.832 3.2 3.2 0 00-1.404-.312 3.2 3.2 0 00-1.404.312 3.676 3.676 0 00-1.144.858 4.35 4.35 0 00-.754 1.3 5.002 5.002 0 00-.26 1.637z" fill="#000"/></svg>
